Newaita-dark/apps/48/com.github.peteruithoven.resizer.svg

<svg height="48pt" viewBox="0 0 48 48" width="48pt" xmlns="http://www.w3.org/2000/svg" xmlns:xlink="http://www.w3.org/1999/xlink"><linearGradient id="a" gradientUnits="userSpaceOnUse" x1="23.81478" x2="23.81478" y1="42.0509015" y2="44.03546750005"><stop offset="0" stop-opacity=".27451"/><stop offset="1" stop-opacity="0"/></linearGradient><linearGradient id="b"><stop offset="0" stop-opacity=".313726"/><stop offset=".222222" stop-opacity=".27451"/><stop offset="1" stop-opacity="0"/></linearGradient><radialGradient id="c" cx="450.908936" cy="189.579361" gradientTransform="matrix(.00000026 -.117199 -.210958 -.00000015 80.180536 95.392996)" gradientUnits="userSpaceOnUse" r="21.166656" xlink:href="#b"/><radialGradient id="d" cx="450.908936" cy="189.579361" gradientTransform="matrix(-.00000026 .117199 .210958 .00000015 -32.550992 -11.291221)" gradientUnits="userSpaceOnUse" r="21.166656" xlink:href="#b"/><radialGradient id="e" cx="450.908936" cy="189.579361" gradientTransform="matrix(-.00000026 -.117199 .210958 -.00000015 -32.550992 95.392996)" gradientUnits="userSpaceOnUse" r="21.166656" xlink:href="#b"/><radialGradient id="f" cx="450.908936" cy="189.579361" gradientTransform="matrix(.00000026 .117199 -.210958 .00000015 80.180533 -11.291222)" gradientUnits="userSpaceOnUse" r="21.166656" xlink:href="#b"/><linearGradient id="g" gradientTransform="matrix(.113024 0 0 .326118 -8.78102 50.462022)" gradientUnits="userSpaceOnUse" x1="305.954559" x2="305.954559" y1="-31.87709" y2="-135.329163"><stop offset="0" stop-color="#42a5f5"/><stop offset="1" stop-color="#9fa8da"/></linearGradient><linearGradient id="h" gradientUnits="userSpaceOnUse" x1="23.814816" x2="23.814816" y1="42.05098580616" y2="27.16672429293"><stop offset="0" stop-color="#37474f"/><stop offset="1" stop-color="#455a64"/></linearGradient><linearGradient id="i"><stop offset="0" stop-color="#fdd835"/><stop offset="1" stop-color="#fff176"/></linearGradient><linearGradient id="j" gradientUnits="userSpaceOnUse" x1="34.771996" x2="34.771996" xlink:href="#i" y1="18.23616929293" y2="12.28246529293"/><linearGradient id="k" gradientTransform="matrix(.0224445 0 0 .0199835 .510566 8.366044)" gradientUnits="userSpaceOnUse" x1="1400" x2="1400" xlink:href="#i" y1="695.118103" y2="455.118103"/><linearGradient id="l" gradientUnits="userSpaceOnUse" x1="23.81481622568" x2="23.856872" y1="38.91446333645" y2="7.32104566504"><stop offset="0" stop-color="#bdbdbd"/><stop offset="1" stop-color="#e0e0e0"/></linearGradient><path d="m6.945312 42.050781h33.738282v1.929688h-33.738282zm0 0" fill="url(#a)"/><path d="m40.683594 42.050781h3.96875v-1.984375h-3.96875zm0 0" fill="url(#c)"/><path d="m6.945312 42.050781h-3.96875v1.984375h3.96875zm0 0" fill="url(#d)"/><path d="m6.945312 42.050781h-3.96875v-1.984375h3.96875zm0 0" fill="url(#e)"/><path d="m40.683594 42.050781h3.96875v1.984375h-3.96875zm0 0" fill="url(#f)"/><path d="m4.960938 6.328125h37.707031c1.097656 0 1.984375.890625 1.984375 1.984375v31.753906c0 1.097656-.886719 1.984375-1.984375 1.984375h-37.707031c-1.09375 0-1.984376-.886719-1.984376-1.984375v-31.753906c0-1.09375.890626-1.984375 1.984376-1.984375zm0 0" fill="url(#g)"/><path d="m2.976562 31.136719v8.929687c0 1.097656.886719 1.984375 1.984376 1.984375h37.707031c1.101562 0 1.984375-.886719 1.984375-1.984375v-8.929687c-8.25 4.828125-10.925782-.550781-14.292969-1.433594-3.601563-.941406-4.289063 3.339844-7.921875 2.90625-3.632812-.4375-8.261719-5.914063-11.609375-5.570313s-5.03125 2.316407-7.851563 4.097657zm0 0" fill="url(#h)"/><path d="m34.773438 12.28125c-.542969 0-1.050782.144531-1.488282.398438.890625.511718 1.488282 1.472656 1.488282 2.578124 0 1.109376-.597657 2.070313-1.488282 2.582032.4375.253906.945313.394531 1.488282.394531 1.648437 0 2.976562-1.324219 2.976562-2.976563 0-1.648437-1.328125-2.976562-2.976562-2.976562zm0 0" fill="url(#j)"/><path d="m31.933594 17.460938c-.492188 0-.953125.117187-1.347656.320312.804687.410156 1.347656 1.1875 1.347656 2.078125s-.542969 1.664063-1.347656 2.078125c.394531.203125.855468.320312 1.347656.320312 1.492187 0 2.691406-1.070312 2.691406-2.398437s-1.199219-2.398437-2.691406-2.398437zm0 0" fill="url(#k)"/><path d="m4.960938 42.050781c-1.097657 0-1.984376-.882812-1.984376-1.984375v-.738281c0 1.097656.886719 1.984375 1.984376 1.984375h37.707031c1.101562 0 1.984375-.886719 1.984375-1.984375v.738281c0 1.101563-.882813 1.984375-1.984375 1.984375zm0 0" fill-opacity=".235294"/><path d="m4.960938 6.328125c-1.097657 0-1.984376.886719-1.984376 1.984375v.746094c0-1.101563.886719-1.984375 1.984376-1.984375h37.707031c1.101562 0 1.984375.882812 1.984375 1.984375v-.746094c0-1.097656-.882813-1.984375-1.984375-1.984375zm0 0" fill="#fff" fill-opacity=".392157"/><path d="m52.911614-147.506445h402.169928c11.707215 0 21.164645 9.499093 21.164645 21.164645v338.675992c0 11.707215-9.45743 21.164645-21.164645 21.164645h-402.169928c-11.665553 0-21.164646-9.45743-21.164646-21.164645v-338.675992c0-11.665552 9.499093-21.164645 21.164646-21.164645zm0 0" fill="none" stroke="#212121" stroke-linecap="round" stroke-width="3" transform="matrix(.093759 0 0 .093759 0 20.158175)"/><path d="m31.292969 14.070312c-1.128907.007813-1.859375 1.246094-1.28125 2.25l1.234375 2.140626-16.292969 9.40625-1.238281-2.140626c-.597656-1.035156-2.109375-.984374-2.636719.085938l-3.171875 6.414062c-.21875.441407-.207031.960938.03125 1.390626.246094.445312.703125.734374 1.214844.769531l7.140625.457031c1.191406.078125 1.988281-1.207031 1.390625-2.242188l-1.234375-2.140624 16.296875-9.40625 1.234375 2.140624c.597656 1.035157 2.109375.984376 2.640625-.085937l3.171875-6.414063c.226562-.457031.203125-1-.058594-1.4375-.253906-.421874-.699219-.691406-1.1875-.722656l-7.140625-.460937c-.039062 0-.074219-.003907-.113281-.003907zm0 0" fill="url(#l)"/><path d="m31.292969 14.070312c-.960938.007813-1.632813.902344-1.457031 1.785157.132812-.664063.707031-1.210938 1.457031-1.214844h.113281l7.140625.460937c.488281.03125.933594.304688 1.1875.726563.089844.152344.152344.316406.183594.484375.070312-.355469.007812-.734375-.183594-1.054688-.253906-.421874-.699219-.691406-1.1875-.722656l-7.140625-.460937c-.039062 0-.074219-.003907-.113281-.003907zm-.558594 4.6875-15.78125 9.109376-1.238281-2.140626c-.597656-1.035156-2.109375-.984374-2.636719.085938l-3.171875 6.414062c-.148438.296876-.191406.628907-.128906.945313.023437-.128906.066406-.257813.128906-.378906l3.171875-6.414063c.527344-1.070312 2.039063-1.121094 2.636719-.085937l1.238281 2.140625 15.78125-9.109375.6875-.46875-.121094-.371094zm-13.769531 12.59375-.550782-.960937-.125.25.675782 1.277344.71875 1.25c.089844.152343.144531.308593.175781.460937.066406-.332031.019531-.691406-.175781-1.027344zm0 0" fill="#fff" fill-opacity=".588235"/><path d="m29.917969 16.28125c-.160157.402344-.152344.875.09375 1.304688l.757812 1.308593.476563-.277343-1.234375-2.140626c-.035157-.0625-.070313-.128906-.09375-.195312zm9.921875.460938c-.011719.039062-.03125.074218-.046875.113281l-3.171875 6.414062c-.53125 1.070313-2.042969 1.121094-2.640625.082031l-1.234375-2.136718-16.296875 9.40625.480469.828125 15.816406-9.128907 1.234375 2.140626c.597656 1.035156 2.109375.984374 2.640625-.085938l3.171875-6.414062c.1875-.382813.203125-.828126.046875-1.21875zm-31.984375 16.859374c-.164063.417969-.136719.886719.082031 1.28125.246094.445313.703125.734376 1.214844.769532l7.140625.457031c1.117187.074219 1.890625-1.050781 1.488281-2.046875-.226562.566406-.789062.988281-1.488281.941406l-7.140625-.460937c-.511719-.03125-.96875-.320313-1.214844-.765625-.03125-.058594-.058594-.117188-.082031-.175782zm0 0" fill-opacity=".235294"/><path d="m333.759794-64.930998c-12.040517.083326-19.831439 13.290398-13.665361 23.997709l13.165409 22.831153-173.775072 100.323753-13.207072-22.831153c-6.374391-11.040613-22.497852-10.498998-28.122315.916579l-33.830102 68.410134c-2.333111 4.707883-2.208123 10.249021.333301 14.831917 2.62475 4.749546 7.499284 7.832585 12.957096 8.207549l76.159394 4.874535c12.70712.833253 21.206308-12.873771 14.831917-23.914383l-13.16541-22.831153 173.816735-100.323753 13.16541 22.831153c6.374391 11.040612 22.497851 10.498997 28.163977-.916579l33.830102-68.410134c2.416436-4.874535 2.16646-10.665648-.62494-15.331869-2.708075-4.499571-7.457621-7.374296-12.665457-7.707598l-76.159394-4.916197c-.416627 0-.791591-.041663-1.208218-.041663zm0 0" fill="none" stroke="#212121" stroke-linecap="round" stroke-linejoin="round" stroke-width="3" transform="matrix(.093759 0 0 .093759 0 20.158175)"/></svg>

<?xml version="1.0" encoding="UTF-8"?>
<svg xmlns="http://www.w3.org/2000/svg" xmlns:xlink="http://www.w3.org/1999/xlink" width="48pt" height="48pt" viewBox="0 0 48 48" version="1.1">
<defs>
<linearGradient id="linear0" gradientUnits="userSpaceOnUse" x1="254" y1="233.5" x2="254" y2="254.666672" gradientTransform="matrix(0.093759,0,0,0.093759,-0.00000572259,20.158175)">
<stop offset="0" style="stop-color:rgb(0%,0%,0%);stop-opacity:0.27451;"/>
<stop offset="1" style="stop-color:rgb(0%,0%,0%);stop-opacity:0;"/>
</linearGradient>
<radialGradient id="radial0" gradientUnits="userSpaceOnUse" cx="450.908936" cy="189.579361" fx="450.908936" fy="189.579361" r="21.166656" gradientTransform="matrix(0.000000261256,-0.117199,-0.210958,-0.000000152308,80.180536,95.392996)">
<stop offset="0" style="stop-color:rgb(0%,0%,0%);stop-opacity:0.313726;"/>
<stop offset="0.222222" style="stop-color:rgb(0%,0%,0%);stop-opacity:0.27451;"/>
<stop offset="1" style="stop-color:rgb(0%,0%,0%);stop-opacity:0;"/>
</radialGradient>
<radialGradient id="radial1" gradientUnits="userSpaceOnUse" cx="450.908936" cy="189.579361" fx="450.908936" fy="189.579361" r="21.166656" gradientTransform="matrix(-0.000000261256,0.117199,0.210958,0.000000152308,-32.550992,-11.291221)">
<stop offset="0" style="stop-color:rgb(0%,0%,0%);stop-opacity:0.313726;"/>
<stop offset="0.222222" style="stop-color:rgb(0%,0%,0%);stop-opacity:0.27451;"/>
<stop offset="1" style="stop-color:rgb(0%,0%,0%);stop-opacity:0;"/>
</radialGradient>
<radialGradient id="radial2" gradientUnits="userSpaceOnUse" cx="450.908936" cy="189.579361" fx="450.908936" fy="189.579361" r="21.166656" gradientTransform="matrix(-0.000000261256,-0.117199,0.210958,-0.000000152308,-32.550992,95.392996)">
<stop offset="0" style="stop-color:rgb(0%,0%,0%);stop-opacity:0.313726;"/>
<stop offset="0.222222" style="stop-color:rgb(0%,0%,0%);stop-opacity:0.27451;"/>
<stop offset="1" style="stop-color:rgb(0%,0%,0%);stop-opacity:0;"/>
</radialGradient>
<radialGradient id="radial3" gradientUnits="userSpaceOnUse" cx="450.908936" cy="189.579361" fx="450.908936" fy="189.579361" r="21.166656" gradientTransform="matrix(0.000000261256,0.117199,-0.210958,0.000000152308,80.180533,-11.291222)">
<stop offset="0" style="stop-color:rgb(0%,0%,0%);stop-opacity:0.313726;"/>
<stop offset="0.222222" style="stop-color:rgb(0%,0%,0%);stop-opacity:0.27451;"/>
<stop offset="1" style="stop-color:rgb(0%,0%,0%);stop-opacity:0;"/>
</radialGradient>
<linearGradient id="linear1" gradientUnits="userSpaceOnUse" x1="305.954559" y1="-31.87709" x2="305.954559" y2="-135.329163" gradientTransform="matrix(0.113024,0,0,0.326118,-8.78102,50.462022)">
<stop offset="0" style="stop-color:rgb(25.882354%,64.705884%,96.078432%);stop-opacity:1;"/>
<stop offset="1" style="stop-color:rgb(62.352943%,65.882355%,85.490197%);stop-opacity:1;"/>
</linearGradient>
<linearGradient id="linear2" gradientUnits="userSpaceOnUse" x1="960" y1="1615.118164" x2="960" y2="1015.118103" gradientTransform="matrix(0.0248071,0,0,0.0248071,0,1.984588)">
<stop offset="0" style="stop-color:rgb(21.568628%,27.843139%,30.980393%);stop-opacity:1;"/>
<stop offset="1" style="stop-color:rgb(27.058825%,35.294119%,39.215687%);stop-opacity:1;"/>
</linearGradient>
<linearGradient id="linear3" gradientUnits="userSpaceOnUse" x1="1400" y1="695.118103" x2="1400" y2="455.118103" gradientTransform="matrix(0.0248071,0,0,0.0248071,0.0420558,0.992305)">
<stop offset="0" style="stop-color:rgb(99.215686%,84.705883%,20.784314%);stop-opacity:1;"/>
<stop offset="1" style="stop-color:rgb(100%,94.509804%,46.27451%);stop-opacity:1;"/>
</linearGradient>
<linearGradient id="linear4" gradientUnits="userSpaceOnUse" x1="1400" y1="695.118103" x2="1400" y2="455.118103" gradientTransform="matrix(0.0224445,0,0,0.0199835,0.510566,8.366044)">
<stop offset="0" style="stop-color:rgb(99.215686%,84.705883%,20.784314%);stop-opacity:1;"/>
<stop offset="1" style="stop-color:rgb(100%,94.509804%,46.27451%);stop-opacity:1;"/>
</linearGradient>
<linearGradient id="linear5" gradientUnits="userSpaceOnUse" x1="958.304688" y1="1528.681641" x2="960" y2="255.118118" gradientTransform="matrix(0.0248071,0,0,0.0248071,0.0420558,0.992305)">
<stop offset="0" style="stop-color:rgb(74.117649%,74.117649%,74.117649%);stop-opacity:1;"/>
<stop offset="1" style="stop-color:rgb(87.843138%,87.843138%,87.843138%);stop-opacity:1;"/>
</linearGradient>
</defs>
<g id="surface1">
<path style=" stroke:none;fill-rule:nonzero;fill:url(#linear0);" d="M 6.945312 42.050781 L 40.683594 42.050781 L 40.683594 43.980469 L 6.945312 43.980469 Z M 6.945312 42.050781 "/>
<path style=" stroke:none;fill-rule:nonzero;fill:url(#radial0);" d="M 40.683594 42.050781 L 44.652344 42.050781 L 44.652344 40.066406 L 40.683594 40.066406 Z M 40.683594 42.050781 "/>
<path style=" stroke:none;fill-rule:nonzero;fill:url(#radial1);" d="M 6.945312 42.050781 L 2.976562 42.050781 L 2.976562 44.035156 L 6.945312 44.035156 Z M 6.945312 42.050781 "/>
<path style=" stroke:none;fill-rule:nonzero;fill:url(#radial2);" d="M 6.945312 42.050781 L 2.976562 42.050781 L 2.976562 40.066406 L 6.945312 40.066406 Z M 6.945312 42.050781 "/>
<path style=" stroke:none;fill-rule:nonzero;fill:url(#radial3);" d="M 40.683594 42.050781 L 44.652344 42.050781 L 44.652344 44.035156 L 40.683594 44.035156 Z M 40.683594 42.050781 "/>
<path style=" stroke:none;fill-rule:nonzero;fill:url(#linear1);" d="M 4.960938 6.328125 L 42.667969 6.328125 C 43.765625 6.328125 44.652344 7.21875 44.652344 8.3125 L 44.652344 40.066406 C 44.652344 41.164062 43.765625 42.050781 42.667969 42.050781 L 4.960938 42.050781 C 3.867188 42.050781 2.976562 41.164062 2.976562 40.066406 L 2.976562 8.3125 C 2.976562 7.21875 3.867188 6.328125 4.960938 6.328125 Z M 4.960938 6.328125 "/>
<path style=" stroke:none;fill-rule:nonzero;fill:url(#linear2);" d="M 2.976562 31.136719 L 2.976562 40.066406 C 2.976562 41.164062 3.863281 42.050781 4.960938 42.050781 L 42.667969 42.050781 C 43.769531 42.050781 44.652344 41.164062 44.652344 40.066406 L 44.652344 31.136719 C 36.402344 35.964844 33.726562 30.585938 30.359375 29.703125 C 26.757812 28.761719 26.070312 33.042969 22.4375 32.609375 C 18.804688 32.171875 14.175781 26.695312 10.828125 27.039062 C 7.480469 27.382812 5.796875 29.355469 2.976562 31.136719 Z M 2.976562 31.136719 "/>
<path style=" stroke:none;fill-rule:nonzero;fill:url(#linear3);" d="M 34.773438 12.28125 C 34.230469 12.28125 33.722656 12.425781 33.285156 12.679688 C 34.175781 13.191406 34.773438 14.152344 34.773438 15.257812 C 34.773438 16.367188 34.175781 17.328125 33.285156 17.839844 C 33.722656 18.09375 34.230469 18.234375 34.773438 18.234375 C 36.421875 18.234375 37.75 16.910156 37.75 15.257812 C 37.75 13.609375 36.421875 12.28125 34.773438 12.28125 Z M 34.773438 12.28125 "/>
<path style=" stroke:none;fill-rule:nonzero;fill:url(#linear4);" d="M 31.933594 17.460938 C 31.441406 17.460938 30.980469 17.578125 30.585938 17.78125 C 31.390625 18.191406 31.933594 18.96875 31.933594 19.859375 C 31.933594 20.75 31.390625 21.523438 30.585938 21.9375 C 30.980469 22.140625 31.441406 22.257812 31.933594 22.257812 C 33.425781 22.257812 34.625 21.1875 34.625 19.859375 C 34.625 18.53125 33.425781 17.460938 31.933594 17.460938 Z M 31.933594 17.460938 "/>
<path style=" stroke:none;fill-rule:nonzero;fill:rgb(0%,0%,0%);fill-opacity:0.235294;" d="M 4.960938 42.050781 C 3.863281 42.050781 2.976562 41.167969 2.976562 40.066406 L 2.976562 39.328125 C 2.976562 40.425781 3.863281 41.3125 4.960938 41.3125 L 42.667969 41.3125 C 43.769531 41.3125 44.652344 40.425781 44.652344 39.328125 L 44.652344 40.066406 C 44.652344 41.167969 43.769531 42.050781 42.667969 42.050781 Z M 4.960938 42.050781 "/>
<path style=" stroke:none;fill-rule:nonzero;fill:rgb(100%,100%,100%);fill-opacity:0.392157;" d="M 4.960938 6.328125 C 3.863281 6.328125 2.976562 7.214844 2.976562 8.3125 L 2.976562 9.058594 C 2.976562 7.957031 3.863281 7.074219 4.960938 7.074219 L 42.667969 7.074219 C 43.769531 7.074219 44.652344 7.957031 44.652344 9.058594 L 44.652344 8.3125 C 44.652344 7.214844 43.769531 6.328125 42.667969 6.328125 Z M 4.960938 6.328125 "/>
<path style="fill:none;stroke-width:3;stroke-linecap:round;stroke-linejoin:miter;stroke:rgb(12.941177%,12.941177%,12.941177%);stroke-opacity:1;stroke-miterlimit:4;" d="M 52.911614 -147.506445 L 455.081542 -147.506445 C 466.788757 -147.506445 476.246187 -138.007352 476.246187 -126.3418 L 476.246187 212.334192 C 476.246187 224.041407 466.788757 233.498837 455.081542 233.498837 L 52.911614 233.498837 C 41.246061 233.498837 31.746968 224.041407 31.746968 212.334192 L 31.746968 -126.3418 C 31.746968 -138.007352 41.246061 -147.506445 52.911614 -147.506445 Z M 52.911614 -147.506445 " transform="matrix(0.093759,0,0,0.093759,0,20.158175)"/>
<path style=" stroke:none;fill-rule:nonzero;fill:url(#linear5);" d="M 31.292969 14.070312 C 30.164062 14.078125 29.433594 15.316406 30.011719 16.320312 L 31.246094 18.460938 L 14.953125 27.867188 L 13.714844 25.726562 C 13.117188 24.691406 11.605469 24.742188 11.078125 25.8125 L 7.90625 32.226562 C 7.6875 32.667969 7.699219 33.1875 7.9375 33.617188 C 8.183594 34.0625 8.640625 34.351562 9.152344 34.386719 L 16.292969 34.84375 C 17.484375 34.921875 18.28125 33.636719 17.683594 32.601562 L 16.449219 30.460938 L 32.746094 21.054688 L 33.980469 23.195312 C 34.578125 24.230469 36.089844 24.179688 36.621094 23.109375 L 39.792969 16.695312 C 40.019531 16.238281 39.996094 15.695312 39.734375 15.257812 C 39.480469 14.835938 39.035156 14.566406 38.546875 14.535156 L 31.40625 14.074219 C 31.367188 14.074219 31.332031 14.070312 31.292969 14.070312 Z M 31.292969 14.070312 "/>
<path style=" stroke:none;fill-rule:nonzero;fill:rgb(100%,100%,100%);fill-opacity:0.588235;" d="M 31.292969 14.070312 C 30.332031 14.078125 29.660156 14.972656 29.835938 15.855469 C 29.96875 15.191406 30.542969 14.644531 31.292969 14.640625 C 31.332031 14.640625 31.367188 14.640625 31.40625 14.640625 L 38.546875 15.101562 C 39.035156 15.132812 39.480469 15.40625 39.734375 15.828125 C 39.824219 15.980469 39.886719 16.144531 39.917969 16.3125 C 39.988281 15.957031 39.925781 15.578125 39.734375 15.257812 C 39.480469 14.835938 39.035156 14.566406 38.546875 14.535156 L 31.40625 14.074219 C 31.367188 14.074219 31.332031 14.070312 31.292969 14.070312 Z M 30.734375 18.757812 L 14.953125 27.867188 L 13.714844 25.726562 C 13.117188 24.691406 11.605469 24.742188 11.078125 25.8125 L 7.90625 32.226562 C 7.757812 32.523438 7.714844 32.855469 7.777344 33.171875 C 7.800781 33.042969 7.84375 32.914062 7.90625 32.792969 L 11.078125 26.378906 C 11.605469 25.308594 13.117188 25.257812 13.714844 26.292969 L 14.953125 28.433594 L 30.734375 19.324219 L 31.421875 18.855469 L 31.300781 18.484375 Z M 16.964844 31.351562 L 16.414062 30.390625 L 16.289062 30.640625 L 16.964844 31.917969 L 17.683594 33.167969 C 17.773438 33.320312 17.828125 33.476562 17.859375 33.628906 C 17.925781 33.296875 17.878906 32.9375 17.683594 32.601562 Z M 16.964844 31.351562 "/>
<path style=" stroke:none;fill-rule:nonzero;fill:rgb(0%,0%,0%);fill-opacity:0.235294;" d="M 29.917969 16.28125 C 29.757812 16.683594 29.765625 17.15625 30.011719 17.585938 L 30.769531 18.894531 L 31.246094 18.617188 L 30.011719 16.476562 C 29.976562 16.414062 29.941406 16.347656 29.917969 16.28125 Z M 39.839844 16.742188 C 39.828125 16.78125 39.808594 16.816406 39.792969 16.855469 L 36.621094 23.269531 C 36.089844 24.339844 34.578125 24.390625 33.980469 23.351562 L 32.746094 21.214844 L 16.449219 30.621094 L 16.929688 31.449219 L 32.746094 22.320312 L 33.980469 24.460938 C 34.578125 25.496094 36.089844 25.445312 36.621094 24.375 L 39.792969 17.960938 C 39.980469 17.578125 39.996094 17.132812 39.839844 16.742188 Z M 7.855469 33.601562 C 7.691406 34.019531 7.71875 34.488281 7.9375 34.882812 C 8.183594 35.328125 8.640625 35.617188 9.152344 35.652344 L 16.292969 36.109375 C 17.410156 36.183594 18.183594 35.058594 17.78125 34.0625 C 17.554688 34.628906 16.992188 35.050781 16.292969 35.003906 L 9.152344 34.542969 C 8.640625 34.511719 8.183594 34.222656 7.9375 33.777344 C 7.90625 33.71875 7.878906 33.660156 7.855469 33.601562 Z M 7.855469 33.601562 "/>
<path style="fill:none;stroke-width:3;stroke-linecap:round;stroke-linejoin:round;stroke:rgb(12.941177%,12.941177%,12.941177%);stroke-opacity:1;stroke-miterlimit:4;" d="M 333.759794 -64.930998 C 321.719277 -64.847672 313.928355 -51.6406 320.094433 -40.933289 L 333.259842 -18.102136 L 159.48477 82.221617 L 146.277698 59.390464 C 139.903307 48.349851 123.779846 48.891466 118.155383 60.307043 L 84.325281 128.717177 C 81.99217 133.42506 82.117158 138.966198 84.658582 143.549094 C 87.283332 148.29864 92.157866 151.381679 97.615678 151.756643 L 173.775072 156.631178 C 186.482192 157.464431 194.98138 143.757407 188.606989 132.716795 L 175.441579 109.885642 L 349.258314 9.561889 L 362.423724 32.393042 C 368.798115 43.433654 384.921575 42.892039 390.587701 31.476463 L 424.417803 -36.933671 C 426.834239 -41.808206 426.584263 -47.599319 423.792863 -52.26554 C 421.084788 -56.765111 416.335242 -59.639836 411.127406 -59.973138 L 334.968012 -64.889335 C 334.551385 -64.889335 334.176421 -64.930998 333.759794 -64.930998 Z M 333.759794 -64.930998 " transform="matrix(0.093759,0,0,0.093759,0,20.158175)"/>
</g>
</svg>
